X:1
T:Title
%%score { ( 1 2 ) | ( 3 4 ) }
L:1/8
M:4/4
K:Eb
V:1 treble nm="Grand Piano"
V:2 treble 
V:3 bass 
V:4 bass 
V:1
 z4 z2[Q:1/4=100] z G | B3 B cB[DA][DF] | E6 G2 | [DF]3 [EG] [FA][Ac][GB][FA] |[M:3/4] [EG]6 | %5
[M:1/4] [GB]2 |[M:4/4] [Ge]3 [Ad] eBAG | c6 [Ad]2 | [Ge]3 [GB] [Ac][GB][DA][DF] |[M:3/4] E6 | %10
[M:1/4] GA |[M:4/4] B6 z2 | e6 z2 | [EAc]3 [EAc] [EAc][Ece][EBd][EAc] | [GB]6 z2 | e6 z2 | c6 z2 | %17
 [Ge]3 [GB] [Ac][GB][DA][DF] |[M:3/4] E6 |] %19
V:2
 z4 z2 E2 | x8 | x8 | x8 |[M:3/4] x6 |[M:1/4] x2 |[M:4/4] x8 | x8 | x8 |[M:3/4] x6 |[M:1/4] x2 | %11
[M:4/4] z2 EE E2 cd | z2 B,B, B,2 [EGB]2 | x8 | E2 EE EBBB | z B,B,B, B,BBB | z EEE E2 [Ad]2 | x8 | %18
[M:3/4] x6 |] %19
V:3
 z8 | [E,G,E]3 [E,G,E] [E,A,E][E,G,E][B,,B,][B,,A,] | [E,G,]6 [E,B,E]2 | %3
 [B,,B,]3 [B,,B,] [B,,B,][B,,B,][B,,B,][B,,B,] |[M:3/4] [E,B,]6 |[M:1/4] [E,B,]2 | %6
[M:4/4] [E,B,]3 [F,B,][K:treble] [G,B,G][G,B,E][K:bass][F,B,D][E,B,E] | [A,E]6 [F,B,]2 | %8
 [E,B,]3 [E,B,] [B,,B,][B,,B,][B,,B,][B,,A,] |[M:3/4] [E,G,]6 |[M:1/4][K:treble] EF | %11
[M:4/4] G6[K:bass][K:treble] z2 | G6[K:bass] z2 | A,3 A, A,A,A,A, | E,2 E,E, E,[K:treble]GGG | %15
 G6[K:bass][K:treble] z2 | A6[K:bass] z2 | [E,B,]3 [E,B,] [B,,B,][B,,B,][B,,B,][B,,A,] | %18
[M:3/4] [E,G,]6 |] %19
V:4
 x8 | x8 | x8 | x8 |[M:3/4] x6 |[M:1/4] x2 |[M:4/4] x4[K:treble] x2[K:bass] x2 | x8 | x8 | %9
[M:3/4] x6 |[M:1/4][K:treble] x2 |[M:4/4] z2[K:bass] E,E, E,2[K:treble] AA | %12
 z2[K:bass] E,E, E,2 E,2 | x8 | x5[K:treble] x3 | z[K:bass] E,E,E, E,[K:treble]GGG | %16
 z A,[K:bass]A,A, A,2 [F,B,]2 | x8 |[M:3/4] x6 |] %19

